drapeaux/SS.svg

<svg xmlns="http://www.w3.org/2000/svg" width="1140" height="570"><path fill="#FFF" d="M0 0H1140V570H0Z"/><path d="M0 0H1140v170H0Z"/><path fill="#E22028" d="M0 200H1140v170H0Z"/><path fill="#00914C" d="M0 400H1140v170H0Z"/><path fill="#00B6F2" d="M0 0 493.6344802 285 0 570Z"/><path fill="#FFE51A" d="M164.5448267 190 220.3844257 361.8566145 74.1944577 255.6433855H254.8951958L108.7052278 361.8566145Z"/></svg>

<svg xmlns="http://www.w3.org/2000/svg" width="1140" height="570"><path fill="#fff" d="M0 0h1140v570H0Z"/><path d="M0 0h1140v170H0Z"/><path fill="#e22028" d="M0 200h1140v170H0Z"/><path fill="#00914c" d="M0 400h1140v170H0Z"/><path fill="#00b6f2" d="m0 0 493.634 285L0 570Z"/><path fill="#ffe51a" d="m164.545 190 55.84 171.857-146.19-106.214h180.7l-146.19 106.214Z"/></svg>
